dist/intermediate-svg/triangle-empty-alert.svg

<?xml version="1.0" encoding="utf-8"?><svg width="14" height="13" fill="none" xmlns="http://www.w3.org/2000/svg" viewBox="0 0 14 13"><path d="M13.8877 11.3817L7.64884 0.40128C7.4991 0.151726 7.24955 0.0019989 7 0.0019989C6.75045 0.0019989 6.5009 0.151726 6.35116 0.40128L0.1123 11.3817C-0.0374332 11.6312 -0.0374332 11.8808 0.1123 12.1303C0.262032 12.3799 0.511581 12.4797 0.761135 12.4797H13.2389C13.4884 12.4797 13.738 12.33 13.8877 12.1303C14.0374 11.8808 14.0374 11.5813 13.8877 11.3817ZM2.05882 10.9824L7 2.24799L11.9412 10.9824H2.05882ZM7.74866 9.48507V9.98418C7.74866 10.2836 7.54902 10.4833 7.24955 10.4833H6.75045C6.45098 10.4833 6.25134 10.2836 6.25134 9.98418V9.48507C6.25134 9.18561 6.45098 8.98596 6.75045 8.98596H7.24955C7.54902 8.98596 7.74866 9.18561 7.74866 9.48507ZM6.75045 4.99309H7.24955C7.54902 4.99309 7.74866 5.19273 7.74866 5.4922V6.98953L7.44919 8.28721C7.44919 8.38704 7.34937 8.48685 7.19964 8.48685H6.80036C6.70054 8.48685 6.5508 8.38704 6.5508 8.28721L6.25134 6.98953V5.4922C6.25134 5.19273 6.45098 4.99309 6.75045 4.99309Z" fill="#0094FF"/></svg>

<?xml version="1.0" encoding="utf-8"?><svg width="14" height="13" fill="none" xmlns="http://www.w3.org/2000/svg" viewBox="0 0 14 13"><path d="M13.888 11.382L7.648.402C7.5.151 7.25.001 7 .001s-.5.15-.649.4L.112 11.381a.68.68 0 000 .748c.15.25.4.35.65.35h12.477c.25 0 .499-.15.649-.35.15-.25.15-.549 0-.748zm-11.83-.4L7 2.248l4.941 8.734H2.06zm5.69-1.497v.5c0 .299-.199.498-.498.498h-.5c-.299 0-.499-.2-.499-.499v-.499c0-.3.2-.499.5-.499h.499c.299 0 .499.2.499.5zM6.75 4.993h.5c.299 0 .499.2.499.5V6.99l-.3 1.297c0 .1-.1.2-.25.2H6.8c-.1 0-.25-.1-.25-.2L6.252 6.99V5.492c0-.3.2-.499.5-.499z" fill="#0094FF"/></svg>
